X:1
T:Title
%%score { ( 1 3 ) | 2 }
L:1/8
Q:1/4=100
M:4/4
K:Eb
V:1 treble nm="Grand Piano"
V:3 treble 
V:2 bass 
V:1
 [B,GB]2 [B,EG]2 [B,EG][B,DF][B,EG][B,FA] | [Ac]4 [GB]2 z2 | %2
w: George~S.~Weeks * * * * *||
 [EB]2 [B,EG]2 [=A,EG][A,CF][A,CE][A,EG] | [B,DF]6 z2 | [B,EG]2 [A,DF]2 [G,E][B,DF][B,EG][B,FA] | %5
w: |||
 [EAc]4 [EGB]2 z2 | [EGB][B,EG][G,E][CFA] [B,EG]2 [A,DF]2 | [G,E]6 z2 | [FA]2 [EG]2 [DF][EG][FA]F | %9
w: ||||
 B4 G2 z2 | [FA]2 [EG]2 [DF][EG][FA][DAc] | [EGB]6 z2 | [Ge]2 G2 AGAB | c4 e2 z2 | %14
w: |||||
 BGE[CFA] [B,EG]2 [A,DF]2 |[M:3/4] E6 |[M:1/4] B>B |[M:4/4] d2 d2 z4 | [Ge]4 [GB]2 z2 | %19
w: |||||
 d2 d2 dedc | [DB]6 B>B | e2 [B,EG]2 [A,EA]GAB | c4 e2 z2 | BGE[CFA] [B,EG]2 [A,DF]2 | [G,E]6 z2 |] %25
w: ||||||
V:2
 E,2 E,2 E,B,,E,E, | [E,E]4 [E,E]2 z2 | [E,G,]2 E,2 C,C,C,C, | B,,6 z2 | E,2 B,,2 C,B,,E,E, | %5
 E,4 E,2 z2 | E,E,E,A,, B,,2 B,,2 | E,6 z2 | [B,,B,]2 [B,,B,]2 [B,,B,][B,,B,][B,,B,][A,B,D] | %9
 [G,B,E]4 [E,B,E]2 z2 | [B,,B,]2 [B,,B,]2 [B,,B,][B,,B,][B,,B,]B,, | E,6 z2 | %12
 [E,B,]2 [E,_DE]2 [E,CE][E,B,E][E,CE][E,G,E] | [A,E]4 [A,CE]2 z2 | %14
 [G,B,E][E,B,E][E,G,]A,, B,,2 B,,2 |[M:3/4] E,4 z2 |[M:1/4] B,>B, | %17
[M:4/4] [B,,B,]2 [B,,B,]2 [B,,B,]2 [B,,B,]2 | [E,B,]4 [E,E]2 z2 | %19
 [F,B,F]2 [F,B,F]2 [F,B,F][F,CF][F,B,F][F,=A,E] | [B,,B,]6[K:treble] [B,D]>[A,B,F] | %21
 [G,B,E]2 E,_D, C,[E,B,E][E,CE][E,G,E] | [A,E]4 [A,CE]2 z2 | [G,B,E][E,B,E][E,G,]A,, B,,2 B,,2 | %24
 E,6 z2 |] %25
V:3
 x8 | x8 | x8 | x8 | x8 | x8 | x8 | x8 | x8 | x8 | x8 | x8 | x8 | x8 | x8 |[M:3/4] G,4 z2 | %16
[M:1/4] x2 |[M:4/4] AGFG [Ad][Gd][Ac][Ad] | x8 | x8 | x8 | x8 | x8 | x8 | x8 |] %25

